X:1 
T:A_past_and_future_secret.Instr:Bass/Theorbo
C:Blind Guardian/Modified and transcribed by Achazia
N: 
Q:1/4=80 
V:1 
M:4/4 
L:1/8 
K:C
E6 D2 |E4 B2 e2 |E6 D2 |E4 B2 e2 |[z7E8] D |E8 |E4 D2 G2 |D4 E4- |E3 D E4- |E4 E4 |D2 G2 D4 |c4 A4 |D8 |c4 A4 |D8 |c4 A4 |D8 |E6 D2 |E4 B2 e2 |E6 D2 |E4 B2 e2 |E6 D2 |E4 B2 e2 |E6 D2 |E4 B2 e2 |E6 D2 |
E4 B2 e2 |E6 D2 |E4 B2 e2 |c4 A4 |D8 |c4 A4 |D8 |c4 A4 |D8 |c4 A4 |D8 |c4 A4 |D8 |[z7E8] D |[z7E8] D |[z7E8] D |[z7E8] D |[z7E8] D |E8 |E4 D2 G2 |D4 E4- |E3 D E4- |E3 D E4 |D2 G2 D4 |[z7E8] D |[z7E8] D |
E4 D2 G2 |D4 c4 |A4 D4- |D4 c4 |A4 D4- |D4 c4 |A4 D4- |D4 c4 |A4 D4- |D4 c4 |A4 D4- |D4 c4 |A4 D4- |D4 E4- |E3 D E4- |E3 D E4- |E3 D E4- |E3 D E4- |E8- |E4 z4 |]
